X:60
T:Maude Millar
S:James Keane
R:reel
E:7
M:C|
I:speed 350
K:G
gf|edBA GEDE|G2BG dG (3Bcd|eBdB ABGA|Beed e2gf|\
edBA GEDE|G2BG dG (3Bcd|eBdB ABGA|Beed e2:|*
ge|dega bg ~g2|agef gage|dega bg~g2|agef ~g3e|\
dega bg~g2|agef gfga|b2af gfed|Beed e2:|**
<end>
<start>
